logos/windi-css.svg

<?xml version="1.0" encoding="UTF-8"?>
<svg width="256px" height="279px" viewBox="0 0 256 279" version="1.1" xmlns="http://www.w3.org/2000/svg" preserveAspectRatio="xMidYMid">
    <title>Windi CSS</title>
    <defs>
        <linearGradient x1="16.6393504%" y1="36.1860418%" x2="137.274641%" y2="175.371416%" id="windiLinearGradient-1">
            <stop stop-color="#54C8F1" offset="7.8225%"></stop>
            <stop stop-color="#41A2EF" offset="57.2917%"></stop>
            <stop stop-color="#3386EE" offset="100%"></stop>
        </linearGradient>
        <linearGradient x1="-22.0989921%" y1="-49.6214796%" x2="91.4510521%" y2="73.6945313%" id="windiLinearGradient-2">
            <stop stop-color="#54C8F1" offset="7.8225%"></stop>
            <stop stop-color="#41A2EF" offset="57.2917%"></stop>
            <stop stop-color="#3386EE" offset="100%"></stop>
        </linearGradient>
        <linearGradient x1="8.69565217%" y1="37.4606971%" x2="71.7391304%" y2="80.2713244%" id="windiLinearGradient-3">
            <stop stop-color="#54C8F1" offset="7.8225%"></stop>
            <stop stop-color="#41A2EF" offset="57.2917%"></stop>
            <stop stop-color="#3386EE" offset="100%"></stop>
        </linearGradient>
        <linearGradient x1="60.7436542%" y1="-308.636493%" x2="501.135147%" y2="225.788414%" id="windiLinearGradient-4">
            <stop stop-color="#54C8F1" offset="7.8225%"></stop>
            <stop stop-color="#41A2EF" offset="57.2917%"></stop>
            <stop stop-color="#3386EE" offset="100%"></stop>
        </linearGradient>
    </defs>
    <g>
        <path d="M133.784487,48.9218783 C133.784487,21.9447652 111.839443,0 84.8626087,0 C56.4321391,0 39.4354087,21.3158957 39.4354087,41.9328 L67.3906087,41.9328 C67.3906087,36.1321739 72.813913,27.9552 84.8626087,27.9552 C96.4221217,27.9552 105.829009,37.3623652 105.829009,48.9218783 C105.829009,60.4813913 97.3913043,69.8882783 76.1135304,69.8882783 L0,69.8882783 L0,97.8434783 L76.1135304,97.8434783 C112.025043,97.8434783 133.784487,75.898713 133.784487,48.9218783 Z M133.784487,48.9218783 C133.784487,21.9447652 111.839443,0 84.8626087,0 C56.4321391,0 39.4354087,21.3158957 39.4354087,41.9328 L67.3906087,41.9328 C67.3906087,36.1321739 72.813913,27.9552 84.8626087,27.9552 C96.4221217,27.9552 105.829009,37.3623652 105.829009,48.9218783 C105.829009,60.4813913 97.3913043,69.8882783 76.1135304,69.8882783 L0,69.8882783 L0,97.8434783 L76.1135304,97.8434783 C112.025043,97.8434783 133.784487,75.898713 133.784487,48.9218783 Z" fill="url(#windiLinearGradient-1)"></path>
        <path d="M195.802991,229.338991 C195.802991,256.317217 173.857948,278.26087 146.881113,278.26087 C118.450643,278.26087 101.453635,256.946087 101.453635,236.32807 L129.409113,236.32807 C129.409113,242.128696 134.832417,250.306783 146.881113,250.306783 C158.440626,250.306783 167.847513,240.898783 167.847513,229.338991 C167.847513,217.779478 157.217391,208.372591 138.132035,208.372591 L53.6706783,208.372591 L53.6706783,180.417391 L138.132035,180.417391 C174.043548,180.417391 195.802991,202.362157 195.802991,229.338991 Z M195.802991,229.338991 C195.802991,256.317217 173.857948,278.26087 146.881113,278.26087 C118.450643,278.26087 101.453635,256.946087 101.453635,236.32807 L129.409113,236.32807 C129.409113,242.128696 134.832417,250.306783 146.881113,250.306783 C158.440626,250.306783 167.847513,240.898783 167.847513,229.338991 C167.847513,217.779478 157.217391,208.372591 138.132035,208.372591 L53.6706783,208.372591 L53.6706783,180.417391 L138.132035,180.417391 C174.043548,180.417391 195.802991,202.362157 195.802991,229.338991 Z" fill="url(#windiLinearGradient-2)"></path>
        <path d="M203.130435,43.1304348 C172.295791,43.1304348 150.544696,66.5792 150.544696,97.4138435 L175.304348,97.4138435 C175.304348,82.0869565 186.434783,70.9565217 203.130435,70.9565217 C219.826087,70.9565217 228.173913,82.0869565 228.173913,97.4138435 C228.173913,112.74073 217.331757,125.369043 187.826087,125.369043 L0,125.369043 L0,153.324522 L192,153.324522 C235.695304,153.324522 256,125.23993 256,97.4138435 C256,66.5792 235.130435,43.1304348 203.130435,43.1304348 Z" fill="url(#windiLinearGradient-3)"></path>
        <polygon fill="url(#windiLinearGradient-4)" points="36.6472348 180.417391 0 180.417391 0 208.607443 36.6472348 208.607443"></polygon>
    </g>
</svg>

<svg preserveAspectRatio="xMidYMid" viewBox="0 0 256 279" xmlns="http://www.w3.org/2000/svg">
  <defs>
    <linearGradient id="windi-css_svg__a" x1="16.639%" x2="137.275%" y1="36.186%" y2="175.371%">
      <stop offset="7.822%" stop-color="#54C8F1"/>
      <stop offset="57.292%" stop-color="#41A2EF"/>
      <stop offset="100%" stop-color="#3386EE"/>
    </linearGradient>
    <linearGradient id="windi-css_svg__b" x1="-22.099%" x2="91.451%" y1="-49.621%" y2="73.695%">
      <stop offset="7.822%" stop-color="#54C8F1"/>
      <stop offset="57.292%" stop-color="#41A2EF"/>
      <stop offset="100%" stop-color="#3386EE"/>
    </linearGradient>
    <linearGradient id="windi-css_svg__c" x1="8.696%" x2="71.739%" y1="37.461%" y2="80.271%">
      <stop offset="7.822%" stop-color="#54C8F1"/>
      <stop offset="57.292%" stop-color="#41A2EF"/>
      <stop offset="100%" stop-color="#3386EE"/>
    </linearGradient>
    <linearGradient id="windi-css_svg__d" x1="60.744%" x2="501.135%" y1="-308.636%" y2="225.788%">
      <stop offset="7.822%" stop-color="#54C8F1"/>
      <stop offset="57.292%" stop-color="#41A2EF"/>
      <stop offset="100%" stop-color="#3386EE"/>
    </linearGradient>
  </defs>
  <path fill="url(#windi-css_svg__a)" d="M133.784 48.922C133.784 21.945 111.84 0 84.863 0c-28.43 0-45.428 21.316-45.428 41.933h27.956c0-5.8 5.423-13.978 17.472-13.978 11.56 0 20.966 9.407 20.966 20.967 0 11.56-8.438 20.966-29.715 20.966H0v27.955h76.114c35.911 0 57.67-21.944 57.67-48.921Zm0 0C133.784 21.945 111.84 0 84.863 0c-28.43 0-45.428 21.316-45.428 41.933h27.956c0-5.8 5.423-13.978 17.472-13.978 11.56 0 20.966 9.407 20.966 20.967 0 11.56-8.438 20.966-29.715 20.966H0v27.955h76.114c35.911 0 57.67-21.944 57.67-48.921Z"/>
  <path fill="url(#windi-css_svg__b)" d="M195.803 229.339c0 26.978-21.945 48.922-48.922 48.922-28.43 0-45.427-21.315-45.427-41.933h27.955c0 5.8 5.423 13.979 17.472 13.979 11.56 0 20.967-9.408 20.967-20.968s-10.63-20.966-29.716-20.966H53.671v-27.956h84.461c35.912 0 57.671 21.945 57.671 48.922Zm0 0c0 26.978-21.945 48.922-48.922 48.922-28.43 0-45.427-21.315-45.427-41.933h27.955c0 5.8 5.423 13.979 17.472 13.979 11.56 0 20.967-9.408 20.967-20.968s-10.63-20.966-29.716-20.966H53.671v-27.956h84.461c35.912 0 57.671 21.945 57.671 48.922Z"/>
  <path fill="url(#windi-css_svg__c)" d="M203.13 43.13c-30.834 0-52.585 23.45-52.585 54.284h24.76c0-15.327 11.13-26.457 27.825-26.457 16.696 0 25.044 11.13 25.044 26.457s-10.842 27.955-40.348 27.955H0v27.956h192c43.695 0 64-28.085 64-55.911 0-30.835-20.87-54.284-52.87-54.284Z"/>
  <path fill="url(#windi-css_svg__d)" d="M36.647 180.417H0v28.19h36.647z"/>
</svg>
